X:10
T:Fisher's Hornpipe
C: Traditional
M:4/4
R: Hornpipe
L:1/8
K:D
Bc|:dAFD GBAG|FEDF GBAG|FDFD GBAG|FGAF D2 Bc|
dAFD GBAG|FEDF GBAG| FGAd cdec|[1dBAF D2 Bc:|2 dBAF D2 cd||
|:ecAc egfe|fdAd fagf|ecAc egfe|d2 B2 A2 A_B|
=BGDG BdcB|AFDF A2 _B2|=BGBd cdec|[1 dBAF D2 cd:|2 dBAF D2|]
